48x48/apps/distributor-logo-lubuntu.svg

<svg viewBox="0 0 48 48"><defs><linearGradient id="linearGradient3764" x1="1" x2="47" gradientUnits="userSpaceOnUse" gradientTransform="matrix(0,-1,1,0,-1.5e-6,47.999998)"><stop stop-color="#005db4" stop-opacity="1"/><stop offset="1" stop-color="#0068c8ff" stop-opacity="1"/></linearGradient><clipPath id="clipPath-230731799"><g transform="translate(0,-1004.3622)"><path d="m -24 13 c 0 1.105 -0.672 2 -1.5 2 -0.828 0 -1.5 -0.895 -1.5 -2 0 -1.105 0.672 -2 1.5 -2 0.828 0 1.5 0.895 1.5 2 z" transform="matrix(15.333333,0,0,11.5,414.99999,878.8622)" fill="#1890d0"/></g></clipPath><clipPath id="clipPath-236057453"><g transform="translate(0,-1004.3622)"><path d="m -24 13 c 0 1.105 -0.672 2 -1.5 2 -0.828 0 -1.5 -0.895 -1.5 -2 0 -1.105 0.672 -2 1.5 -2 0.828 0 1.5 0.895 1.5 2 z" transform="matrix(15.333333,0,0,11.5,414.99999,878.8622)" fill="#1890d0"/></g></clipPath></defs><g><path d="m 36.31 5 c 5.859 4.062 9.688 10.831 9.688 18.5 c 0 12.426 -10.07 22.5 -22.5 22.5 c -7.669 0 -14.438 -3.828 -18.5 -9.688 c 1.037 1.822 2.306 3.499 3.781 4.969 c 4.085 3.712 9.514 5.969 15.469 5.969 c 12.703 0 23 -10.298 23 -23 c 0 -5.954 -2.256 -11.384 -5.969 -15.469 c -1.469 -1.475 -3.147 -2.744 -4.969 -3.781 z m 4.969 3.781 c 3.854 4.113 6.219 9.637 6.219 15.719 c 0 12.703 -10.297 23 -23 23 c -6.081 0 -11.606 -2.364 -15.719 -6.219 c 4.16 4.144 9.883 6.719 16.219 6.719 c 12.703 0 23 -10.298 23 -23 c 0 -6.335 -2.575 -12.06 -6.719 -16.219 z" opacity="0.05"/><path d="m 41.28 8.781 c 3.712 4.085 5.969 9.514 5.969 15.469 c 0 12.703 -10.297 23 -23 23 c -5.954 0 -11.384 -2.256 -15.469 -5.969 c 4.113 3.854 9.637 6.219 15.719 6.219 c 12.703 0 23 -10.298 23 -23 c 0 -6.081 -2.364 -11.606 -6.219 -15.719 z" opacity="0.1"/><path d="m 31.25 2.375 c 8.615 3.154 14.75 11.417 14.75 21.13 c 0 12.426 -10.07 22.5 -22.5 22.5 c -9.708 0 -17.971 -6.135 -21.12 -14.75 a 23 23 0 0 0 44.875 -7 a 23 23 0 0 0 -16 -21.875 z" opacity="0.2"/></g><g><path d="m 24 1 c 12.703 0 23 10.297 23 23 c 0 12.703 -10.297 23 -23 23 -12.703 0 -23 -10.297 -23 -23 0 -12.703 10.297 -23 23 -23 z" fill="url(#linearGradient3764)" fill-opacity="1"/></g><g/><g><g clip-path="url(#clipPath-230731799)"><g transform="translate(1,1)"><g opacity="0.1"><!-- color: #0068c8ff --><g><path d="m 8.67 3.49 c -0.266 0.067 -0.637 0.235 -0.863 0.336 c -0.192 -0.151 -3.512 1.97 -4.879 2.869 c 0.816 -0.314 2.627 -0.998 2.777 -0.821 c 0.169 0.197 -1.069 1.478 -2.107 3.242 c 0.853 -0.927 2.477 -3.047 2.776 -2.893 c 0.02 0.057 -0.301 0.54 -0.725 1.24 c -0.506 0.836 -0.884 1.583 -1.259 2.304 c 0.041 -0.032 -0.062 0.201 -0.114 0.29 c 0.462 -0.521 1.614 -2.174 2.087 -2.852 c 0.432 -0.624 1.01 -1.639 1.432 -1.647 c 0.708 -0.01 1.585 1.434 2.503 3.595 c 0.155 0.366 0.134 0.429 0.219 0.667 c 0.066 0.054 0.086 -0.092 0.107 -0.115 c -0.01 -0.213 -0.126 -0.659 -0.324 -1.374 c -0.433 -1.569 -0.886 -3.274 -1.961 -4.051 l 0.068 -0.442 c 0.077 -0.098 0.196 -0.238 0.266 -0.346 m 0 -0.002" transform="matrix(3.543307,0,0,3.543307,0,0)" stroke-opacity="1" fill="#000" fill-rule="evenodd" stroke="#fff8eb" stroke-linejoin="round" fill-opacity="1" stroke-linecap="round" stroke-width="0.206" stroke-miterlimit="4"/></g></g></g></g></g><g><g clip-path="url(#clipPath-236057453)"><!-- color: #0068c8ff --><g><path d="m 8.67 3.49 c -0.266 0.067 -0.637 0.235 -0.863 0.336 c -0.192 -0.151 -3.512 1.97 -4.879 2.869 c 0.816 -0.314 2.627 -0.998 2.777 -0.821 c 0.169 0.197 -1.069 1.478 -2.107 3.242 c 0.853 -0.927 2.477 -3.047 2.776 -2.893 c 0.02 0.057 -0.301 0.54 -0.725 1.24 c -0.506 0.836 -0.884 1.583 -1.259 2.304 c 0.041 -0.032 -0.062 0.201 -0.114 0.29 c 0.462 -0.521 1.614 -2.174 2.087 -2.852 c 0.432 -0.624 1.01 -1.639 1.432 -1.647 c 0.708 -0.01 1.585 1.434 2.503 3.595 c 0.155 0.366 0.134 0.429 0.219 0.667 c 0.066 0.054 0.086 -0.092 0.107 -0.115 c -0.01 -0.213 -0.126 -0.659 -0.324 -1.374 c -0.433 -1.569 -0.886 -3.274 -1.961 -4.051 l 0.068 -0.442 c 0.077 -0.098 0.196 -0.238 0.266 -0.346 m 0 -0.002" transform="matrix(3.543307,0,0,3.543307,0,0)" stroke-opacity="1" fill="#fff8eb" fill-rule="evenodd" stroke="#fff8eb" stroke-linejoin="round" fill-opacity="1" stroke-linecap="round" stroke-width="0.206" stroke-miterlimit="4"/></g></g></g><g><path d="m 40.03 7.531 c 3.712 4.084 5.969 9.514 5.969 15.469 0 12.703 -10.297 23 -23 23 c -5.954 0 -11.384 -2.256 -15.469 -5.969 4.178 4.291 10.01 6.969 16.469 6.969 c 12.703 0 23 -10.298 23 -23 0 -6.462 -2.677 -12.291 -6.969 -16.469 z" opacity="0.1"/></g></svg>

<?xml version="1.0" encoding="UTF-8" standalone="no"?>
<svg
   xmlns:dc="http://purl.org/dc/elements/1.1/"
   xmlns:cc="http://creativecommons.org/ns#"
   xmlns:rdf="http://www.w3.org/1999/02/22-rdf-syntax-ns#"
   xmlns:svg="http://www.w3.org/2000/svg"
   xmlns="http://www.w3.org/2000/svg"
   xmlns:sodipodi="http://sodipodi.sourceforge.net/DTD/sodipodi-0.dtd"
   xmlns:inkscape="http://www.inkscape.org/namespaces/inkscape"
   viewBox="0 0 48 48"
   id="svg2"
   version="1.1"
   inkscape:version="0.48.4 r9939"
   width="100%"
   height="100%"
   sodipodi:docname="distributor-logo-lubuntu.svg">
  <metadata
     id="metadata61">
    <rdf:RDF>
      <cc:Work
         rdf:about="">
        <dc:format>image/svg+xml</dc:format>
        <dc:type
           rdf:resource="http://purl.org/dc/dcmitype/StillImage" />
      </cc:Work>
    </rdf:RDF>
  </metadata>
  <sodipodi:namedview
     pagecolor="#ffffff"
     bordercolor="#666666"
     borderopacity="1"
     objecttolerance="10"
     gridtolerance="10"
     guidetolerance="10"
     inkscape:pageopacity="0"
     inkscape:pageshadow="2"
     inkscape:window-width="1375"
     inkscape:window-height="876"
     id="namedview59"
     showgrid="false"
     inkscape:zoom="4.9166667"
     inkscape:cx="-0.20338983"
     inkscape:cy="24"
     inkscape:window-x="65"
     inkscape:window-y="24"
     inkscape:window-maximized="1"
     inkscape:current-layer="svg2" />
  <defs
     id="defs4">
    <linearGradient
       id="linearGradient3764"
       x1="1"
       x2="47"
       gradientUnits="userSpaceOnUse"
       gradientTransform="matrix(0,-1,1,0,-1.5e-6,47.999998)">
      <stop
         stop-color="#005db4"
         stop-opacity="1"
         id="stop7" />
      <stop
         offset="1"
         stop-color="#0068c8ff"
         stop-opacity="1"
         id="stop9" />
    </linearGradient>
    <clipPath
       id="clipPath-230731799">
      <g
         transform="translate(0,-1004.3622)"
         id="g12">
        <path
           d="m -24 13 c 0 1.105 -0.672 2 -1.5 2 -0.828 0 -1.5 -0.895 -1.5 -2 0 -1.105 0.672 -2 1.5 -2 0.828 0 1.5 0.895 1.5 2 z"
           transform="matrix(15.333333,0,0,11.5,414.99999,878.8622)"
           fill="#1890d0"
           id="path14" />
      </g>
    </clipPath>
    <clipPath
       id="clipPath-236057453">
      <g
         transform="translate(0,-1004.3622)"
         id="g17">
        <path
           d="m -24 13 c 0 1.105 -0.672 2 -1.5 2 -0.828 0 -1.5 -0.895 -1.5 -2 0 -1.105 0.672 -2 1.5 -2 0.828 0 1.5 0.895 1.5 2 z"
           transform="matrix(15.333333,0,0,11.5,414.99999,878.8622)"
           fill="#1890d0"
           id="path19" />
      </g>
    </clipPath>
    <linearGradient
       id="linearGradient3764-7"
       x1="1"
       x2="47"
       gradientUnits="userSpaceOnUse"
       gradientTransform="matrix(0,-1,1,0,-1.5e-6,47.999998)">
      <stop
         stop-color="#b5945b"
         stop-opacity="1"
         id="stop7-0" />
      <stop
         offset="1"
         stop-color="#bb9e69"
         stop-opacity="1"
         id="stop9-0" />
    </linearGradient>
    <clipPath
       id="clipPath-899834956">
      <g
         transform="translate(0,-1004.3622)"
         id="g12-6">
        <path
           d="m -24 13 c 0 1.105 -0.672 2 -1.5 2 -0.828 0 -1.5 -0.895 -1.5 -2 0 -1.105 0.672 -2 1.5 -2 0.828 0 1.5 0.895 1.5 2 z"
           transform="matrix(15.333333,0,0,11.5,414.99999,878.8622)"
           fill="#1890d0"
           id="path14-0" />
      </g>
    </clipPath>
    <clipPath
       id="clipPath-909443126">
      <g
         transform="translate(0,-1004.3622)"
         id="g17-7">
        <path
           d="m -24 13 c 0 1.105 -0.672 2 -1.5 2 -0.828 0 -1.5 -0.895 -1.5 -2 0 -1.105 0.672 -2 1.5 -2 0.828 0 1.5 0.895 1.5 2 z"
           transform="matrix(15.333333,0,0,11.5,414.99999,878.8622)"
           fill="#1890d0"
           id="path19-9" />
      </g>
    </clipPath>
    <clipPath
       id="clipPath-909443126-7">
      <g
         transform="translate(0,-1004.3622)"
         id="g17-2">
        <path
           style="fill:#1890d0"
           inkscape:connector-curvature="0"
           d="m -24,13 c 0,1.105 -0.672,2 -1.5,2 -0.828,0 -1.5,-0.895 -1.5,-2 0,-1.105 0.672,-2 1.5,-2 0.828,0 1.5,0.895 1.5,2 z"
           transform="matrix(15.333333,0,0,11.5,414.99999,878.8622)"
           id="path19-3" />
      </g>
    </clipPath>
    <linearGradient
       id="linearGradient3759">
      <stop
         id="stop3761"
         offset="0"
         style="stop-color:#a75e15;stop-opacity:1;" />
      <stop
         id="stop3763"
         offset="1"
         style="stop-color:#ffffff;stop-opacity:0;" />
    </linearGradient>
    <linearGradient
       id="linearGradient3777">
      <stop
         id="stop3779"
         offset="0"
         style="stop-color:#e0dd00;stop-opacity:1;" />
      <stop
         id="stop3781"
         offset="1"
         style="stop-color:#000000;stop-opacity:0;" />
    </linearGradient>
    <clipPath
       id="clipPath-236057453-0">
      <g
         transform="translate(0,-1004.3622)"
         id="g17-4">
        <path
           style="fill:#1890d0"
           inkscape:connector-curvature="0"
           d="m -24,13 c 0,1.105 -0.672,2 -1.5,2 -0.828,0 -1.5,-0.895 -1.5,-2 0,-1.105 0.672,-2 1.5,-2 0.828,0 1.5,0.895 1.5,2 z"
           transform="matrix(15.333333,0,0,11.5,414.99999,878.8622)"
           id="path19-2" />
      </g>
    </clipPath>
  </defs>
  <g
     id="g33" />
  <g
     id="g3085">
    <g
       inkscape:label="shadows"
       id="layer2">
      <rect
         ry="13.03658"
         rx="13.03658"
         y="1"
         x="1"
         height="46"
         width="46"
         id="rect3007"
         style="opacity:0.1;fill:#000000;fill-opacity:1;fill-rule:nonzero;stroke:none" />
      <rect
         style="opacity:0.1;fill:#000000;fill-opacity:1;fill-rule:nonzero;stroke:none"
         id="rect3011"
         width="47"
         height="47"
         x="0.5"
         y="0.5"
         rx="13.319984"
         ry="13.319984" />
      <rect
         style="opacity:0.1;fill:#000000;fill-opacity:1;fill-rule:nonzero;stroke:none"
         id="rect3013"
         width="46.5"
         height="46.5"
         x="0.75"
         y="0.75"
         rx="13.178282"
         ry="13.178282" />
    </g>
    <g
       style="display:inline"
       inkscape:label="background-color"
       id="layer1">
      <rect
         transform="matrix(0,-1,1,0,0,0)"
         ry="12.753176"
         rx="12.753176"
         y="1.5"
         x="-46.5"
         height="45"
         width="45"
         id="rect2988"
         style="fill:#005db4;fill-opacity:1;fill-rule:nonzero;stroke:none" />
    </g>
  </g>
  <g
     transform="translate(-0.00944823,-5.899645e-4)"
     id="g47-7">
    <g
       clip-path="url(#clipPath-236057453-0)"
       id="g49-6">
      <!-- color: #0068c8ff -->
      <g
         id="g51-0">
        <path
           style="fill:#fff8eb;fill-opacity:1;fill-rule:evenodd;stroke:#fff8eb;stroke-width:0.206;stroke-linecap:round;stroke-linejoin:round;stroke-miterlimit:4;stroke-opacity:1"
           inkscape:connector-curvature="0"
           d="M 8.67,3.49 C 8.404,3.557 8.033,3.725 7.807,3.826 7.615,3.675 4.295,5.796 2.928,6.695 3.744,6.381 5.555,5.697 5.705,5.874 5.874,6.071 4.636,7.352 3.598,9.116 4.451,8.189 6.075,6.069 6.374,6.223 6.394,6.28 6.073,6.763 5.649,7.463 5.143,8.299 4.765,9.046 4.39,9.767 4.431,9.735 4.328,9.968 4.276,10.057 4.738,9.536 5.89,7.883 6.363,7.205 6.795,6.581 7.373,5.566 7.795,5.558 8.503,5.548 9.38,6.992 10.298,9.153 10.453,9.519 10.432,9.582 10.517,9.82 10.583,9.874 10.603,9.728 10.624,9.705 10.614,9.492 10.498,9.046 10.3,8.331 9.867,6.762 9.414,5.057 8.339,4.28 L 8.407,3.838 C 8.484,3.74 8.603,3.6 8.673,3.492 m 0,-0.002"
           transform="scale(3.543307,3.543307)"
           stroke-miterlimit="4"
           id="path53-7" />
      </g>
    </g>
  </g>
</svg>
